X: 18491
T: I Ain't Never Heard No Horse Sing A Song
R: slip jig
M: 9/8
K: Gdorian
dfd dcB A2 g|efd dcB ABG|EFD CGF E2F|1 GBc dfg e2f:|2 GBc dfg e2G||
Bcd fge2 fc|d2G BcA (3AAA G|ABc def GAB|cdf gbg a2 G|
Bcd fge2 fc|d2G BcA (3AAA c|dbg afd dfg|gbb (3~aaa g gfe||

